X:166
T: ACH GOTT WIE WEH THUT SCHEIDEN
N: E0746A
O: Europa, Mitteleuropa, Deutschland
R: Abschieds - Lied, Liebe
M: 6/8
L: 1/8
K: G
G | A2GF2E | E3D2
D | G2GAGA | B4z
G | A2GF2E | E3D2
D | G2GAGA | B4z
B | d2dd2d | d2AA2
A | c2cedc | c3B2
B | cBAG2F | G4z

